X:50
T:PASTOURELLE DE JANS
Z: Yves BELOTTEAU
M:4/4
L:1/8
Q:1/4=99
K:G
|:DGBG DGB2|BA/2B/2cB AGAF|DFAF DFA2|AA/2A/2dc BABG:|
G2B2 G2dd/2d/2|edcB c2cc/2c/2|dcBA BGdd/2d/2|edcB c2cc/2c/2|
dcBA G3/2|
